public/images/employers/foxtel.svg

<svg enable-background="new -2 -12 34 34" height="34" viewBox="-2 -12 34 34" width="34" xmlns="http://www.w3.org/2000/svg"><g transform="translate(-5 -4.9)"><path d="m35.892 5.18h1.562v9.375h-1.561zm-3.763 2.983c-1.85 0-3.285 1.49-3.285 3.302s1.436 3.247 3.285 3.247c1.055 0 1.99-.391 2.6-1.226l-1.061-.929c-.336.438-.813.727-1.539.727-.811 0-1.498-.516-1.725-1.289h4.629c.023-.203.039-.398.039-.616 0-1.718-1.162-3.216-2.943-3.216zm-1.701 2.606c.227-.733.836-1.249 1.701-1.249.836 0 1.375.578 1.452 1.249zm-3.435-4.598h-1.562v8.392h1.562v-4.879h1.515v-1.374h-1.515zm-2.264 2.139h-1.851l-1.467 1.889-1.42-1.889h-1.874l2.295 2.989-2.498 3.264h1.874l1.561-2.092 1.537 2.092h1.882l-2.451-3.231z" fill="#f2320a"/><path d="m14.988 8.163c-1.804 0-3.302 1.459-3.302 3.278 0 1.812 1.499 3.278 3.302 3.278s3.302-1.459 3.302-3.278-1.499-3.278-3.302-3.278zm0 5.136c-1.015 0-1.804-.813-1.804-1.866 0-1.055.789-1.866 1.804-1.866 1.014 0 1.803.813 1.803 1.865 0 1.055-.789 1.867-1.803 1.867zm-5.035-5.652c0-.741.234-1.085.897-1.085h.874v-1.374h-.991c-1.374 0-2.349.617-2.349 2.467v.664h-1.101v1.373h1.101v4.879h1.561v-4.879h1.514v-1.373h-1.514v-.672z" fill="#f2320a"/><path d="m2.5.223h35v19.354h-35z" fill="none"/></g></svg>

<?xml version="1.0" encoding="utf-8"?>
<!-- Generator: Adobe Illustrator 16.0.0, SVG Export Plug-In . SVG Version: 6.00 Build 0)  -->
<!DOCTYPE svg PUBLIC "-//W3C//DTD SVG 1.1//EN" "http://www.w3.org/Graphics/SVG/1.1/DTD/svg11.dtd">
<svg version="1.1" id="Layer_1" xmlns="http://www.w3.org/2000/svg" xmlns:xlink="http://www.w3.org/1999/xlink" x="0px" y="0px"
	 width="34px" height="34px" viewBox="-2 -12 34 34" enable-background="new -2 -12 34 34" xml:space="preserve">
<title>logo-text</title>
<desc>Created with Sketch.</desc>
<g id="Artboard-2">
	<g id="logo-text" transform="translate(-5.000000, -4.900000)">
		<path id="Shape" fill="#F2320A" d="M35.892,5.18h1.562v9.375h-1.561L35.892,5.18z M32.129,8.163c-1.85,0-3.285,1.49-3.285,3.302
			s1.436,3.247,3.285,3.247c1.055,0,1.99-0.391,2.6-1.226l-1.061-0.929c-0.336,0.438-0.813,0.727-1.539,0.727
			c-0.811,0-1.498-0.516-1.725-1.289h4.629c0.023-0.203,0.039-0.398,0.039-0.616C35.072,9.661,33.91,8.163,32.129,8.163
			L32.129,8.163z M30.428,10.769c0.227-0.733,0.836-1.249,1.701-1.249c0.836,0,1.375,0.578,1.452,1.249H30.428z M26.993,6.171
			h-1.562v8.392h1.562V9.684h1.515V8.31h-1.515V6.171z M24.729,8.31h-1.851l-1.467,1.889L19.991,8.31h-1.874l2.295,2.989
			l-2.498,3.264h1.874l1.561-2.092l1.537,2.092h1.882l-2.451-3.231L24.729,8.31z"/>
		<path id="Shape_1_" fill="#F2320A" d="M14.988,8.163c-1.804,0-3.302,1.459-3.302,3.278c0,1.812,1.499,3.278,3.302,3.278
			s3.302-1.459,3.302-3.278S16.791,8.163,14.988,8.163z M14.988,13.299c-1.015,0-1.804-0.813-1.804-1.866
			c0-1.055,0.789-1.866,1.804-1.866c1.014,0,1.803,0.813,1.803,1.865C16.791,12.487,16.002,13.299,14.988,13.299z M9.953,7.647
			c0-0.741,0.234-1.085,0.897-1.085h0.874V5.188h-0.991c-1.374,0-2.349,0.617-2.349,2.467v0.664H7.283v1.373h1.101v4.879h1.561
			V9.692h1.514V8.319H9.945V7.647H9.953L9.953,7.647z"/>
		<polygon id="Shape_2_" fill="none" points="2.5,0.223 37.5,0.223 37.5,19.577 2.5,19.577 		"/>
	</g>
</g>
</svg>
